img/makelog/makelog.svg

<svg fill="none" height="500" viewBox="0 0 800 500" width="800" xmlns="http://www.w3.org/2000/svg"><path d="m0 0h800v500h-800z" fill="#3635e7"/><circle cx="218" cy="250" fill="#fff" r="90"/><path clip-rule="evenodd" d="m244.052 222.527c2.223-4.446.421-9.852-4.025-12.075-4.445-2.223-9.852-.421-12.074 4.025l-11.065 22.129-9.397-14.096c-1.854-2.781-5.096-4.306-8.421-3.96-3.324.346-6.183 2.506-7.424 5.609l-18 45c-1.846 4.616.399 9.853 5.014 11.699s9.853-.398 11.699-5.014l11.645-29.114 8.51 12.764c1.78 2.67 4.846 4.19 8.048 3.991 3.202-.2 6.055-2.089 7.49-4.958zm5.692 8.74-11.384 22.769 7.104 21.312c1.572 4.715 6.669 7.264 11.384 5.692 4.716-1.572 7.264-6.669 5.693-11.384z" fill="#3635e7" fill-rule="evenodd"/><g fill="#fff"><path d="m353 274.75h11.858v-22.72c0-4.361 2.601-7.65 6.502-7.65 4.055 0 6.273 2.907 6.273 7.038v23.332h11.858v-22.644c0-4.513 2.6-7.726 6.502-7.726 4.131 0 6.12 2.907 6.12 7.344v23.026h11.858v-27.157c0-8.415-5.891-14.229-14.689-14.229-5.048 0-8.873 1.759-11.704 5.508h-.535c-2.448-3.443-6.426-5.508-11.705-5.508-5.355 0-8.874 2.677-10.557 5.355h-.612v-4.361h-11.169z"/><path d="m439.147 275.745c6.656 0 10.022-3.749 11.169-5.585h.612v4.59h11.781v-40.392h-11.857v4.59h-.612c-1.377-2.142-5.049-5.584-11.399-5.584-10.863 0-18.36 8.721-18.36 21.42s7.574 20.961 18.666 20.961zm2.678-10.71c-5.585 0-9.333-4.208-9.333-10.481 0-6.196 3.748-10.48 9.256-10.48 5.432 0 9.333 4.054 9.333 10.48 0 5.967-3.595 10.481-9.256 10.481z"/><path d="m510.808 274.75-13.999-25.857 13.005-14.535h-14.612l-11.475 13.77h-.459v-30.753h-11.857v57.375h11.857v-10.786l5.355-5.967 8.874 16.753z"/><path d="m531.678 275.745c10.939 0 18.283-5.432 20.119-13.923h-10.71c-1.147 2.524-4.284 4.819-8.95 4.819-5.585 0-9.333-3.672-9.716-8.797h29.759v-3.443c0-11.245-6.962-21.037-20.273-21.037-12.316 0-20.731 8.797-20.731 21.42 0 12.163 8.797 20.961 20.502 20.961zm-9.027-25.781c.535-3.978 4.207-7.573 9.256-7.573 5.279 0 8.798 3.289 9.257 7.573z"/><path d="m571.963 274.75h4.055v-10.404h-1.454c-2.142 0-3.366-1.224-3.366-3.672v-43.299h-11.857v44.676c0 7.88 4.513 12.699 12.622 12.699z"/><path d="m602.529 275.745c13.005 0 21.802-9.257 21.802-21.191s-8.797-21.19-21.726-21.19c-13.081 0-21.802 9.256-21.802 21.19s8.797 21.191 21.726 21.191zm0-10.71c-5.585 0-9.716-4.284-9.716-10.481 0-6.12 4.131-10.48 9.716-10.48 5.661 0 9.792 4.36 9.792 10.48s-4.131 10.481-9.792 10.481z"/><path d="m650.924 293.34c14.459 0 21.114-8.492 21.114-19.049v-39.933h-11.857v4.59h-.612c-1.224-1.989-4.973-5.584-11.552-5.584-10.327 0-18.207 8.032-18.207 20.961 0 13.005 8.033 20.884 18.513 20.884 6.426 0 9.945-3.595 11.322-5.584h.612v4.666c0 6.273-3.136 9.486-9.333 9.486-5.202 0-7.803-2.295-8.338-5.355h-10.863c.382 7.727 6.655 14.918 19.201 14.918zm.23-28.841c-5.585 0-9.333-3.901-9.333-10.174 0-6.197 3.748-10.251 9.256-10.251 5.432 0 9.333 3.825 9.333 10.251 0 5.967-3.595 10.174-9.256 10.174z"/></g></svg>

<svg width="800" height="500" viewBox="0 0 800 500" fill="none" xmlns="http://www.w3.org/2000/svg">
<rect width="800" height="500" fill="#3635E7"/>
<circle cx="218" cy="250" r="90" fill="white"/>
<path fill-rule="evenodd" clip-rule="evenodd" d="M244.052 222.527C246.275 218.081 244.473 212.675 240.027 210.452C235.582 208.229 230.175 210.031 227.953 214.477L216.888 236.606L207.491 222.51C205.637 219.729 202.395 218.204 199.07 218.55C195.746 218.896 192.887 221.056 191.646 224.159L173.646 269.159C171.8 273.775 174.045 279.012 178.66 280.858C183.275 282.704 188.513 280.46 190.359 275.844L202.004 246.73L210.514 259.494C212.294 262.164 215.36 263.684 218.562 263.485C221.764 263.285 224.617 261.396 226.052 258.527L244.052 222.527ZM249.744 231.267L238.36 254.036L245.464 275.348C247.036 280.063 252.133 282.612 256.848 281.04C261.564 279.468 264.112 274.371 262.541 269.656L249.744 231.267Z" fill="#3635E7"/>
<path d="M353 274.75H364.858V252.03C364.858 247.669 367.459 244.38 371.36 244.38C375.415 244.38 377.633 247.287 377.633 251.418V274.75H389.491V252.106C389.491 247.593 392.091 244.38 395.993 244.38C400.124 244.38 402.113 247.287 402.113 251.724V274.75H413.971V247.593C413.971 239.178 408.08 233.364 399.282 233.364C394.234 233.364 390.409 235.123 387.578 238.872H387.043C384.595 235.429 380.617 233.364 375.338 233.364C369.983 233.364 366.464 236.041 364.781 238.719H364.169V234.358H353V274.75Z" fill="white"/>
<path d="M439.147 275.745C445.803 275.745 449.169 271.996 450.316 270.16H450.928V274.75H462.709V234.358H450.852V238.948H450.24C448.863 236.806 445.191 233.364 438.841 233.364C427.978 233.364 420.481 242.085 420.481 254.784C420.481 267.483 428.055 275.745 439.147 275.745ZM441.825 265.035C436.24 265.035 432.492 260.827 432.492 254.554C432.492 248.358 436.24 244.074 441.748 244.074C447.18 244.074 451.081 248.128 451.081 254.554C451.081 260.521 447.486 265.035 441.825 265.035Z" fill="white"/>
<path d="M510.808 274.75L496.809 248.893L509.814 234.358H495.202L483.727 248.128H483.268V217.375H471.411V274.75H483.268V263.964L488.623 257.997L497.497 274.75H510.808Z" fill="white"/>
<path d="M531.678 275.745C542.617 275.745 549.961 270.313 551.797 261.822H541.087C539.94 264.346 536.803 266.641 532.137 266.641C526.552 266.641 522.804 262.969 522.421 257.844H552.18V254.401C552.18 243.156 545.218 233.364 531.907 233.364C519.591 233.364 511.176 242.161 511.176 254.784C511.176 266.947 519.973 275.745 531.678 275.745ZM522.651 249.964C523.186 245.986 526.858 242.391 531.907 242.391C537.186 242.391 540.705 245.68 541.164 249.964H522.651Z" fill="white"/>
<path d="M571.963 274.75H576.018V264.346H574.564C572.422 264.346 571.198 263.122 571.198 260.674V217.375H559.341V262.051C559.341 269.931 563.854 274.75 571.963 274.75Z" fill="white"/>
<path d="M602.529 275.745C615.534 275.745 624.331 266.488 624.331 254.554C624.331 242.62 615.534 233.364 602.605 233.364C589.524 233.364 580.803 242.62 580.803 254.554C580.803 266.488 589.6 275.745 602.529 275.745ZM602.529 265.035C596.944 265.035 592.813 260.751 592.813 254.554C592.813 248.434 596.944 244.074 602.529 244.074C608.19 244.074 612.321 248.434 612.321 254.554C612.321 260.674 608.19 265.035 602.529 265.035Z" fill="white"/>
<path d="M650.924 293.34C665.383 293.34 672.038 284.848 672.038 274.291V234.358H660.181V238.948H659.569C658.345 236.959 654.596 233.364 648.017 233.364C637.69 233.364 629.81 241.396 629.81 254.325C629.81 267.33 637.843 275.209 648.323 275.209C654.749 275.209 658.268 271.614 659.645 269.625H660.257V274.291C660.257 280.564 657.121 283.777 650.924 283.777C645.722 283.777 643.121 281.482 642.586 278.422H631.723C632.105 286.149 638.378 293.34 650.924 293.34ZM651.154 264.499C645.569 264.499 641.821 260.598 641.821 254.325C641.821 248.128 645.569 244.074 651.077 244.074C656.509 244.074 660.41 247.899 660.41 254.325C660.41 260.292 656.815 264.499 651.154 264.499Z" fill="white"/>
</svg>
